X:1
T:Flute Sonata in E minor
T:BWV 1034
T:J. S. Bach
%%score { 1 | 2 }
L:1/8
Q:1/4=60
M:4/4
K:G
V:1 treble nm="ハープ" snm="Hrp."
V:2 bass 
V:1
"^Adagio ma non tanto" z B/G/ E/G/c- c/^D/E/B/ F/A/G/F/ | G/E/G/B/ e/B/g- g/B/c/e/ A/g/f/e/ | %2
 ^dB z g/e/ c/e/A- A/c/d/e/ | f/B/a- a/g/a/f/ g>a b/4a/4b/4a/4b/4a/4g/4a/4 | b8- | %5
 bb/g/ a/f/g/e/ Ba/f/ g/e/f/^d/ | Ac'/a/ b/g/a/f/ ^d/f/g/e/ f/d/e/c/ | %7
 ^G/A/c/A/ B/=G/A/F/ ^d/e/E/A/ G/4F/4G/4F/4G/4F/4E/ | EB/G/ E/G/c- c/E/F/A/ D/c/B/A/ | %9
 Bd/B/ G/B/e- e/B/^c/e/ F/e/d/c/ | dB g>d e/^c/ A2 d/F/ | G/E/^A- A/B/A/B/ ^c/d/e- e/c/d/B/ | %12
 ^cF f6- | f^A/^c/ B/d/c/e/ g/f/c/e/ d/f/e/g/ | b/^a/d'/f/ g/e/A/^c/ G/F/b/d/ e/c/F/^A/ | %15
 E/D/g/e/ f/d/e/^c/ ^a/b/B/e/ d/4c/4d/4c/4d/4c/4B/ | BD/E/ G/F/c/a/ c/B/^d/e/ A/E/^D/F/ | %17
 A/F/G/B/ d/c/=f/d'/ f/e/^g/a/ d/A/^G/B/ | d/B/c/e/ A/c/=f- f/A/B/d/ G/f/e/d/ | %19
 eg/e/ c/e/a- a/e/f/a/ B/a/g/f/ | gg'/b/ c'/a/d/f/ c/B/e'/g/ a/f/B/d/ | %21
 A/G/c'/e/ =f/d/^G/B/ d/c/^D/F/ E/=G/F/A/ | c/B/F/A/ G/B/A/c/ e/^d/A/c/ B/e/d/f/ | %23
 a/f/g/e/ c'>g a/f/d- dg/B/ | c/A/^d- d/e/d/e/ f/g/a- a/f/g/e/ | f/^d/B z b b4- | %26
 b^d/f/ e/g/f/a/ c/B/f/a/ g/b/a/c'/ | e/^d/c'/a/ b/g/a/f/ d/e/g/e/ =f/=d/e/c/ | %28
 ^G/A/c/A/ B/=G/A/F/ ^d/e/E/A/ G/4F/4G/4F/4G/4F/4E/ | !fermata!E4 z4 | %30
[M:2/2]"^Allegro"[Q:1/4=120] z e/f/ ga/g/ fbea | dc/d/ ef/e/ dgca | BA/B/ cd/c/ BeA^d | %33
 ed/c/ BA GA/G/ FE/F/ | G/F/E/F/ G/A/B/^c/ dB b2- | b/a/g/a/ d'/g/f/g/ ^c'/f/e/f/ g2- | %36
 g/f/e/f/ b/e/d/e/ a/d/^c/d/ e2- | e/d/^c/d/ g/c/B/c/ d/c/B/c/ d/e/f/g/ | fbe^a bB z d- | %39
 d/c/B/c/ac B/A/B/d/ g2- | g/A/G/A/fA G/F/G/B/ e2- | e/c/B/A/ e/c/e/A/ e/B/A/G/ e/B/e/G/ | %42
 e/A/G/F/ e/A/e/F/ e/G/F/E/ A/E/B/E/ | d/c/B/A/ ^d/A/e/A/ g/f/e/d/ b2- | %44
 be/f/ g/e/B/^d/ eE z E/F/ | G/B/e/B/ G/E/^D/E/ G/B/e/B/ G/E/D/E/ | %46
 A/^d/f/d/ A/E/^D/E/ A/d/f/d/ A/E/D/E/ | B/e/g/e/ B/E/^D/E/ B/e/g/e/ B/E/D/E/ | %48
 F/G/A/B/ ^c/^d/e/f/ g/e/f z/ b/^a/b/ | f/^d/B/d/ f/a/g/a/ f/d/B/d/ f/e/d/e/ | %50
 B/^G/E/G/ B/d/c/d/ B/G/E/G/ B/a/^g/a/ | e/^c/A/c/ e/g/f/g/ e/c/A/c/ e/d/c/d/ | %52
 A/F/D/F/ A/c/B/c/ A/F/D/F/ A/g/f/g/ | d/B/G/B/ d/g/f/g/ c/a/f/a/ B/g/e/g/ | %54
 Ad z/ e/f/g/ a/f/d/f/ g/e/c/e/ | fB z/ d/c/A/ B/d/B/G/ A/c/A/F/ | B/c/d- de/f/ gf/e/dc | %57
 BG z2 z d/e/ fg/f/ | eadg ^cB/c/ de/d/ | ^cfBg AG/A/ Bc/B/ | AdG^c dc/B/ AG | FdE^c d2 z =f- | %62
 f/e/d/e/bd c/B/c/e/ A/B/c- | c/B/A/B/fA G/F/G/B/ e/f/g- | g/f/e/f/^c'e d/^c/d/f/ b2- | %65
 b/g/f/e/ b/g/b/e/ b/f/e/d/ b/f/b/d/ | b/e/d/^c/ b/e/b/c/ b/d/c/B/ e/B/f/B/ | %67
 a/g/f/e/ ^a/e/b/e/ d'/^c'/b/a/ f'2- | f'b/^c'/ d'/b/f/c'/ bB z B/^c/ | %69
 d/f/b/f/ d/B/^A/B/ d/f/b/f/ d/B/A/B/ | ^d/f/a/f/ d/B/^A/B/ d/f/a/f/ d/B/A/B/ | %71
 G/B/e/B/ G/E/^D/E/ G/B/e/B/ G/E/D/E/ | ^G/B/d/B/ G/E/^D/E/ G/B/d/B/ G/E/D/E/ | %73
 c/e/a/e/ c/A/^G/A/ c/e/a/e/ c/A/G/A/ | ^c/e/g/e/ c/A/^G/A/ c/e/g/e/ c/A/G/A/ | %75
 f/a/d'/a/ f/d/^c/d/ f/a/d'/a/ f/d/c/d/ | f/a/c'/a/ f/d/^c/d/ f/a/c'/a/ f/d/c/d/ | %77
 bd g2- gf/e/fg/f/ | eG e2- ed/c/de/d/ | cE c2- cB/A/Bc/B/ | A/c/B/A/ ^d/c/B/A/ f/c/B/A/ a/c/B/A/ | %81
 G/B/A/G/ e/B/A/G/ g/B/A/G/ b/B/A/G/ | F/A/G/F/ ^d/A/G/F/ f/A/G/F/ a/A/G/F/ | c'F/G/ AB/A/ GeF^d | %84
 E2 z e- e/d/^c/d/ g/=c/B/c/ | f/B/A/B/ c2- c/B/A/B/ e/A/G/A/ | d/G/F/G/ A2- A/G/F/G/ c/F/E/F/ | %87
 B/E/^D/E/ =F2- F/E/D/E/ A2- | A/F/^D/F/ A/f/e/f/ A/F/D/F/ A/f/e/f/ | %89
 B/G/E/G/ B/g/f/g/ B/G/E/G/ B/g/f/g/ | c/A/F/A/ c/a/g/a/ c/A/F/A/ ^d/a/g/f/ | %91
 g/e/c/e/ f/d/B/d/ eAdG | c/a/f/a/ B/g/e/g/ AfGe | ^d B2 z2 e/f/ ga/g/ | fbea dc/d/ ef/e/ | %95
 dgca BA/B/ cd/c/ | BeA^d ed/^c/ Ba | gf/e/ g/f/e/^d/ e/a/c'/a/ e/c/B/c/ | %98
 ^A/G/E/G/ A/^c/e/g/ c'b z/ a/g/f/ | g/e/^d/e/ G/4F/4G/4F/4G/4F/4G/4F/4 E2 z2 | %100
[M:3/4]"^Andante"[Q:1/4=80] d6- | d>e d>c Bc/A/ | G2 z2 z/ e/c/A/ | F/A/G/F/ D2 z/ d/B/G/ | %104
 e3/2f/4g/4 c2- c/a/c/A/ | B>c A>B c>d | d6- | d>e d>c Bc/A/ | G2 z2 z/ e/c/A/ | %109
 F/A/G/F/ D2 z/ d/B/G/ | e3/2f/4g/4 c2- c/a/c/A/ | B>c A>B c>d | BG/F/ G/A/B/c/ d/c/B/c/ | %113
 B/A/B/c/ d/e/f/g/ a/b/f/a/ | g3 c'/b/ a/g/f/g/ | f3 b/a/ g/f/e/d/ | e/f/e/d/ c/B/A/G/ F/G/A/F/ | %117
 D/c/B/A/ B/d/g/e/ g/4f/4g/4f/4g/4f/4g/ | g2 B>A c/B/A/B/4G/4 | d6- | %120
 d/e/d/^c/ d/e/f/g/ a/b/c'/a/ | ^d3/2e/4f/4 e/4d/4e/4d/4e/4d/4e/4d/4 e/4d/4e/4d/4e | %122
 ec/4B/4A/ B/^c/^d/e/ f/g/4f/4e/f/ | g6- | ge/^d/ e/f/g/a/ b/c'/d'/b/ | %125
 ^ga/4g/4f/4g/4 a/4g/4a/4g/4a/4g/4a/4g/4 a/4g/4a/4g/4a | a6- | ag/f/ g/e/^d/e/ g2- | %128
 g=f/e/ f/e/^d/e/ A2- | A/G/F/G/ A/B/c/B/ e/^d/c'/b/ | b>c' b>a g>f | g>e B/e/f/g/ B/a/g/f/ | %132
 g/f/g/e/ B/e/f/g/ A/g/f/e/ | f3 f g/a/4b/4g/f/ | e2- e/g/f/e/ ^c'>e | %135
 d/B/^A/B/ F/B/^c/d/ F/e/d/c/ | d/^c/d/B/ F/B/c/d/ F/e/d/c/ | B2 g2- g/^c/d/B/ | %138
 _B2 f2- f/b/^a/b/ | g>f e/d/^c/e/ ^A/g/f/e/ | d/^c/e d2 d/4c/4B/c | %141
 B2- B/A/G/F/ G/4D/4E/4F/4G/4A/4B/4d/8c/8 | d6- | d>e d>c Bc/A/ | G>F E/G/B/d/ e/c/A/G/ | %145
 G/4F/4E/F/A/ D/F/A/c/ d/B/A/G/ | e>d c/B/A/g/ f/g/a/c/ | B>c A>B c>d | B2 z e de/c/ | %149
 B2 z A/B/4c/4 Bc/A/ | G2 z g/e/ a/b/4c'/4a/g/ | f2 z f/d/ g/a/4b/4g/f/ | e2 z A/c/ f/a/d'- | %153
 d'/c'/4b/4a/4b/4g/ g2 g/4f/4g/4f/4g/4f/4g/ | g6 | z6 | %156
[M:3/4]"^Allegro"[Q:1/4=120] z e/^d/ eB E/F/G/A/ | Be/^d/ eB E/F/G/A/ | B2 z G/A/ Be- | %159
 e^d z d/e/ fa- | ag/f/ ge c/d/e/a/ | f/g/f/e/ d/c/B/A/ B/c/d/g/ | e/c/A/^G/ A/B/c/d/ e/c/B/A/ | %163
 e/B/G/F/ G/A/B/^d/ e/B/A/G/ | c/e/F/E/ F/G/A/B/ c/A/G/F/ | ^d/f/B/A/ B/^c/d/e/ f/d/c/B/ | %166
 a3 b g2- | gf g/4f/4g/4f/4g/4f/4g/4f/4 g/4f/4g/4f/4e | eB BB BB | B/e/d/c/ B/c/A/B/ G/A/F/G/ | %170
 Ee ee ee | e/a/^g/f/ e/f/d/e/ ^c/d/B/c/ | Aa aa aa | a/d'/^c'/b/ a/b/g/a/ f/g/e/f/ | %174
 dd'/c'/ d'=f z/ e/f/d/ | ec'/b/ c'e z/ d/e/c/ | db/a/ bd z/ c/d/B/ | ca/g/ ac z/ B/c/A/ | %178
 Bg/f/ g z z2 | z g/f/ g z z2 | z g/f/ g z z2 | z g/f/ g z z2 | z G/F/ G/A/B/c/ d/e/=f/b/ | %183
 e/d/c/B/ A/B/c/d/ e/f/g/c'/ | f/e/d/c/ B/c/d/e/ f/g/a/d'/ | g/e/a/c'/ f/d/g/b/ e/c/f/a/ | %186
 d/B/e/g/ c/A/d/f/ B/G/c/e/ | A/F/B/d/ G/E/A/c/ F/D/G/B/ | E/A/G/F/ G/F/E/D/ c>c | %189
 c2- c/B/A/B/ c/d/e/f/ | g/f/4e/4d/c/ B2 B/4A/4B/4A/4B/4A/4G/ | Gg/f/ gd G/A/B/c/ | %192
 dG/A/ B/c/d G/A/B/c/ | d2- d/c/B/A/ ^G/F/G/B/ | e2- e/d/^c/B/ ^A/^G/A/c/ | %195
 g2- g/f/e/d/ ^c/B/c/^a/ | b>e d2 d/4^c/4d/4c/4d/4c/4B/ | B6 | z e/^d/ eB E/F/G/A/ | %199
 Be/^d/ eB E/F/G/A/ | B2 z G/A/ Be- | e^d z d/e/ fa- | ag/f/ ge c/d/e/a/ | %203
 f/g/f/e/ d/c/B/A/ B/c/d/g/ | e/c/A/^G/ A/B/c/d/ e/c/B/A/ | e/B/G/F/ G/A/B/^d/ e/B/A/G/ | %206
 c/e/F/E/ F/G/A/B/ c/A/G/F/ | ^d/f/B/A/ B/^c/d/e/ f/d/c/B/ | a3 b g2- | %209
 gf g/4f/4g/4f/4g/4f/4g/4f/4 g/4f/4g/4f/4e | eB BB BB | B/e/d/c/ B/c/A/B/ G/A/F/G/ | Ee ee ee | %213
 e/a/^g/f/ e/f/d/e/ ^c/d/B/c/ | Aa aa aa | a/d'/^c'/b/ a/b/g/a/ f/g/e/f/ | dd'/c'/ d'=f z/ e/f/d/ | %217
 ec'/b/ c'e z/ d/e/c/ | db/a/ bd z/ c/d/B/ | ca/g/ ac z/ B/c/A/ | Bg/f/ g z z2 | z g/f/ g z z2 | %222
 z g/f/ g z z2 | z g/f/ g z z2 | z G/F/ G/A/B/c/ d/e/=f/b/ | e/d/c/B/ A/B/c/d/ e/f/g/c'/ | %226
 f/e/d/c/ B/c/d/e/ f/g/a/d'/ | g/e/a/c'/ f/d/g/b/ e/c/f/a/ | d/B/e/g/ c/A/d/f/ B/G/c/e/ | %229
 A/F/B/d/ G/E/A/c/ F/D/G/B/ | E/A/G/F/ G/F/E/D/ c>c | c2- c/B/A/B/ c/d/e/f/ | %232
 g/f/4e/4d/c/ B2 B/4A/4B/4A/4B/4A/4G/ | Gg/f/ gd G/A/B/c/ | dG/A/ B/c/d G/A/B/c/ | %235
 d2- d/c/B/A/ ^G/F/G/B/ | e2- e/d/^c/B/ ^A/^G/A/c/ | g2- g/f/e/d/ ^c/B/c/^a/ | %238
 b>e d2 d/4^c/4d/4c/4d/4c/4B/ | B6 | z B/c/ Bf d'/c'/b/a/ | ^g/d/B/d/ g/b/g/e/ c/c'/a/=g/ | %242
 =f/a/f/e/ d/c'/b/a/ e/b/a/^g/ | aA/B/ Ae c'/b/a/g/ | f/c/A/c/ f/a/f/d/ B/b/g/f/ | %245
 e/g/e/d/ c/b/a/g/ d/a/g/f/ | g2 z B/c/ dg- | gf z F/G/ Ad- | dc z c/d/ ea- | ag z G/A/ Be- | %250
 ed z f g/f/e/d/ | ge' z g a/g/f/e/ | fd' z d e/d/^c/B/ | e^c' z e f/e/d/^c/ | %254
 d/b/a/g/ f/g/e/f/ d/e/^c/d/ | BB BB BB | B/e/^d/^c/ B/=c/A/B/ G/A/F/G/ | Ee ee ee | %258
 e/a/^g/f/ e/f/d/e/ ^c/d/B/c/ | Aa aa aa | a/d'/^c'/b/ a/b/g/a/ f/g/e/f/ | dd' d'd' d'd' | %262
 d'/c'/b/a/ g/a/f/g/ e/f/d/e/ | c/b/a/g/ f/g/e/f/ d/e/c/d/ | B/a/g/f/ e/f/d/e/ c/d/B/c/ | %265
 A/g/f/e/ ^d/e/^c/d/ B/=c/A/B/ | Ge/^d/ e z z2 | z e/^d/ e z z2 | z e/^d/ e z z2 | z e/^d/ e z z2 | %270
 z E/^D/ E/F/G/A/ B/c/d/=f/ | e/c/A/^G/ A/B/c/d/ e/f/g/b/ | a/f/^d/^c/ d/e/f/g/ a/b/^c'/^d'/ | %273
 e'/c'/f/a/ d'/b/e/g/ c'/a/d/f/ | b/g/c/e/ a/f/B/^d/ g/e/A/c/ | f/d/G/B/ e/c/F/A/ d/B/E/G/ | %276
 c/A/^D/F/ B/G/D/E/ A>A | A2- A/G/F/G/ A/B/^c/^d/ | e/^d/4^c/4B/a/ g2 g/4f/4g/4f/4g/4f/4e/ | %279
 ee'/^d'/ e'b e/f/g/a/ | be/f/ g/a/b e/f/^g/a/ | b2- b/d/c/B/ c/B/c/e/ | a2- a/G/=F/E/ F/E/F/A/ | %283
 ^D2- D/E/F/G/ A/c/B/^A/ | B>g G2 G/4F/4G/4F/4G/4F/4E/ | E6 | z B/c/ Bf d'/c'/b/a/ | %287
 ^g/d/B/d/ g/b/g/e/ c/c'/a/=g/ | =f/a/f/e/ d/c'/b/a/ e/b/a/^g/ | aA/B/ Ae c'/b/a/g/ | %290
 f/c/A/c/ f/a/f/d/ B/b/g/f/ | e/g/e/d/ c/b/a/g/ d/a/g/f/ | g2 z B/c/ dg- | gf z F/G/ Ad- | %294
 dc z c/d/ ea- | ag z G/A/ Be- | ed z f g/f/e/d/ | ge' z g a/g/f/e/ | fd' z d e/d/^c/B/ | %299
 e^c' z e f/e/d/^c/ | d/b/a/g/ f/g/e/f/ d/e/^c/d/ | BB BB BB | B/e/^d/^c/ B/=c/A/B/ G/A/F/G/ | %303
 Ee ee ee | e/a/^g/f/ e/f/d/e/ ^c/d/B/c/ | Aa aa aa | a/d'/^c'/b/ a/b/g/a/ f/g/e/f/ | %307
 dd' d'd' d'd' | d'/c'/b/a/ g/a/f/g/ e/f/d/e/ | c/b/a/g/ f/g/e/f/ d/e/c/d/ | %310
 B/a/g/f/ e/f/d/e/ c/d/B/c/ | A/g/f/e/ ^d/e/^c/d/ B/=c/A/B/ | Ge/^d/ e z z2 | z e/^d/ e z z2 | %314
 z e/^d/ e z z2 | z e/^d/ e z z2 | z E/^D/ E/F/G/A/ B/c/d/=f/ | e/c/A/^G/ A/B/c/d/ e/f/g/b/ | %318
 a/f/^d/^c/ d/e/f/g/ a/b/^c'/^d'/ | e'/c'/f/a/ d'/b/e/g/ c'/a/d/f/ | b/g/c/e/ a/f/B/^d/ g/e/A/c/ | %321
 f/d/G/B/ e/c/F/A/ d/B/E/G/ | c/A/^D/F/ B/G/D/E/ A>A | A2- A/G/F/G/ A/B/^c/^d/ | %324
 e/^d/4^c/4B/a/ g2 g/4f/4g/4f/4g/4f/4e/ | ee'/^d'/ e'b e/f/g/a/ | be/f/ g/a/b e/f/^g/a/ | %327
 b2- b/d/c/B/ c/B/c/e/ | a2- a/G/=F/E/ F/E/F/A/ | ^D2- D/E/F/G/ A/c/B/^A/ | %330
 B>g G2 G/4F/4G/4F/4G/4F/4E/ | E6 |] %332
V:2
 E,,F,,G,,A,, B,,^C,^D,B,, | E,F,G,E, A,B,CA, | B,A,G,E, A,G,F,E, | ^D,F,D,B,, E,=D, C,2 | %4
 B,,B,/G,/ A,/F,/G,/E,/ B,,A,/F,/ G,/E,/F,/^D,/ | A,,G,,F,,E,, ^D,,B,,E,,A,, | %6
 F,,^D,G,,C, B,,B,/G,/ A,/F,/G,/E,/ | CA,^D,B,, G,,C,A,,B,, | E,,2 z E, F,A,F,D, | %9
 G,2 z G, ^C,E,^A,,F, | B,,B,/G,/ E,/G,/^C- C/E,/F,/A,/ D,/F,/B,- | %11
 B,G,/E,/ ^C,/E,/G,- G,/B,,/C,/E,/ ^A,,/C,/F,- | %12
 F,F,,/^A,,/ ^G,,/B,,/A,,/^C,/ E,/D,/A,,/C,/ B,,/D,/C,/E,/ | G,/F,/E, D,E, ^C,G,F,G, | %14
 F,,B,,E,,^C, D,,D,C,^A, | B,E,D,^C, D,E,F,F,, | B,, B,2 A, G, G,,2 F,, | E,, E2 D C C,2 B,, | %18
 A,,2 z A, B,DB,G, | C2 z C F,A,^D,B, | E,E,,A,,F, G,,G,F,D, | E,A,D,E, A,,F,,G,,A,, | %22
 ^D,,^D,E,F, B,,F,G,A, | ^D,E/C/ A,/C/F- F/A,/B,/D/ G,/B,/E- | %24
 EC/A,/ F,/A,/C- C/E,/F,/A,/ ^D,/F,/B,- | B,B,,/^D,/ ^C,/E,/D,/F,/ A,/G,/D,/F,/ E,/G,/F,/A,/ | %26
 C/B,/A, G,A, ^D,CB,C | B,,F,^D,B,, G,,E,A,^G, | CA,^DB, G,C,A,,B,, | !fermata!E,,4 z4 | %30
[M:2/2] E, z E z D z C z | B, z C z B, z A, z | G, z A, z G, z F, z | E,F,G,A, B, z B,, z | %34
 E,,2 z2 z B,/^C/ DE/D/ | ^CFB,E A,G,/A,/ B,C/B,/ | A,DG,E F,E,/F,/ G,A,/G,/ | %37
 F,B,E,^A, B,=A,/G,/ F,E, | D,E,/D,/ ^C,B,,/C,/ D,/C,/B,,/C,/ D,/E,/F,/G,/ | %39
 A,G, F,E,/F,/ z G,/F,/ E,^D,/E,/ | F,E,^D,B,, z E,/F,/ G,F,/G,/ | A,CA,F, G,B,G,E, | %42
 C,E,C,A,, E,D,C,B,, | A,,G,,F,,E,, B,,2- B,,/A,,/G,,/F,,/ | G,,G,/A,/ B,B,, E,2 z2 | %45
 z E,B,E, z E,B,E, | z E,CE, z E,^DE, | z E,EE, z E,G,E, | A,G,F,E, B,B,,/^C,/ ^D,E, | %49
 ^D,F,D,B,, z F,D,B,, | z B,^G,E, z B,G,E, | z E,^C,A,, z E,C,A,, | z A,F,D, z A,F,D, | %53
 z G,/A,/B,C/B,/ A,DG,C | F,E,/F,/ G,A,/G,/ F,B,E,C | D,C,/D,/ E,F,/E,/ D,G,C,F, | %56
 G,F,/E,/ D,C, B,,C,D,D,, | G,,/F,,/G,,/A,,/ B,,/^C,/D,/E,/ F,/E,/F,/G,/ A,/B,/^C/D/ | %58
 ^C/A,/F,/A,/ B,/G,/E,/G,/ A,G,F,G, | A,/F,/D,/F,/ G,/E,/^C,/E,/ F,E,D,E, | %60
 F,/D,/B,,/D,/ E,/^C,/A,,/G,/ F,E,F,G, | A,G,A,A,, D,/^C,/D,/E,/ F,/^G,/A,/B,/ | %62
 ^G,B, z/ E,/F,/G,/ A,=G,F,E, | ^D,F, z/ B,,/^C,/D,/ E,=D,C,B,, | %64
 ^A,,^C, z/ F,/^G,/^A,/ B,=A,=G,F, | E,G,E,^C, D,F,D,B,, | G,B,G,E, B,A,G,F, | %67
 E,D,^C,B,, F,2- F,/E,/D,/C,/ | D,/^C,/D,/E,/F,F,, B,,/B,/A,/G,/ F,/E,/D,/C,/ | %69
 B,,B,,F,B,, z B,,F,B,, | z B,,B,B,, z B,,B,B,, | z E,B,E, z E,B,E, | z E,EE, z E,EE, | %73
 z A,,E,A,, z A,,E,A,, | z A,,A,A,, z A,,A,A,, | z D,A,D, z D,A,D, | z D,DD, z D,DD, | %77
 z G,/A,/ B,C/B,/ A,DD,D- | DE,/F,/ G,A,/G,/ F,B,B,,B,- | B,C,/D,/ E,F,/E,/ D,G,G,,G,- | %80
 G,^D,/E,/ F,A, D,F,B,,D, | z E,/F,/ G,B, E,G,B,,E, | z F,/G,/ A,C F,A,^D,F, | %83
 A,,2 z ^D, E,G,,A,,B,, | E,,E,/F,/ G,A,/G,/ F,B,E,A, | D,C,/D,/ E,F,/E,/ D,G,C,A, | %86
 B,,A,,/B,,/ C,D,/C,/ B,,E,A,,^D, | G,,F,,/G,,/ A,,B,,/A,,/ G,,C,F,,A,, | B,,,B,,F,B,, z B,,F,B,, | %89
 z B,,E,B,, z B,,E,B,, | z B,,^D,B,, z B,,B,B,, | E,A,D,G, C,/A,/F,/A,/ B,,/G,/E,/G,/ | %92
 A,,D,G,,C, F,/^D,/B,,/D,/ E,/F,/G,/A,/ | B,/C/B,/A,/ G,/F,/E,/^D,/ E, z E z | D z C z B, z C z | %95
 B, z A, z G, z A, z | G, z F, z E,F,G,A, | B,A,B,B,, C,2 z2 | ^C,2 z2 ^D,2 z B,, | %99
 E,G,,A,,B,, E,,2 z2 |[M:3/4] G,D B,G, F,D | G,D B,G, D,D | E,B, G,E, C,C | D,A, F,D, B,,B, | %104
 C,G, E,C, A,,F, | G,C, D,2 D,,2 | G,D B,G, F,D | G,D B,G, D,D | E,B, G,E, C,C | D,A, F,D, B,,B, | %110
 C,G, E,C, A,,F, | G,C, D,2 D,,2 | G,D B,G, F,D | G,D B,G, D,D | E,B, G,E, C,C | D,A, F,D, B,,B, | %116
 C,G, E,C, A,,F, | G,G,, D,2 D,,2 | G,,2 z2 z2 | G,D B,G, F,D | G,2 G,,2 z2 | F,A, F,^D, B,,A, | %122
 G,2 E,2 z2 | E,B, G,E, D,B, | C,2 C,,2 z2 | B,D B,^G, E,D | CE CA, F,E | B,^D B,G, E,E | %128
 A,C A,E, C,C | ^D,A, F,D, B,,A, | G,A, B,2 B,,2 | E,B, G,E, ^D,B, | E,B, G,E, ^C,A, | %133
 D,A, F,D, B,,G, | ^C,G, E,C, ^A,,F, | B,,F DB, ^A,F | B,F DB, F,F | G,D B,G, E,E | %138
 F,^C ^A,F, D,D | E,B, G,E, ^C,^A, | B,E, F,2 F,,2 | B,,2 z2 z2 | G,D B,G, F,D | G,D B,G, D,D | %144
 E,B, G,E, C,C | D,A, F,D, B,,B, | C,G, E,C, A,,F, | G,E, D,2 D,,2 | G,D B,G, F,D | G,D B,G, D,D | %150
 E,B, G,E, C,C | D,A, F,D, B,,B, | C,G, E,C, A,,F, | G,C, D,2 D,,2 | G,,6 | z6 |[M:3/4] E,2 z2 z2 | %157
 E,,2 z2 z2 | z E,/^D,/ E,B,, E,,/F,,/G,,/A,,/ | B,,B,/A,/ B,F, E,/^D,/^C,/B,,/ | E,2 z G, A,C, | %161
 D,2 z F, G,B,, | C,2 z A,, F,,A,, | B,,2 z G,, E,,G,, | A,,B,, A,,G,, F,,G,,/A,,/ | %165
 B,,^C, ^D,E, D,E, | ^D,B,/A,/ B,D, E,/G,/A,/B,/ | CA, B,A, B,B,, | E,2 z2 z2 | z E, E,E, E,E, | %170
 E,/A,/^G,/F,/ E,/F,/D,/E,/ ^C,/D,/B,,/C,/ | A,,A, A,A, A,A, | %172
 A,/D/^C/B,/ A,/B,/G,/A,/ F,/G,/E,/F,/ | D,D DD DD | D/G/F/E/ D/E/C/D/ B,/C/A,/B,/ | %175
 C/=F/E/D/ C/D/B,/C/ A,/B,/G,/A,/ | B,/E/D/C/ B,/C/A,/B,/ G,/A,/F,/G,/ | %177
 A,/D/C/B,/ A,/B,/G,/A,/ F,/G,/E,/F,/ | G, z z F, G,/F,/E,/D,/ | E,C z E, =F,/E,/D,/C,/ | %180
 D,B, z B,, C,/B,,/A,,/G,,/ | C,A, z C, D,/C,/B,,/A,,/ | B,,G, z D, B,,G,, | C,A, z E, C,A,, | %184
 D,B, z F, D,B,, | E,C DB, CA, | B,G, A,F, G,E, | F,D, E,C, D,B,, | C,A,, B,,G,, A,,/G,,/F,,/E,,/ | %189
 D,,A,/G,/ A,F, D,C, | B,,C, D,C, D,D,, | G,,2 z2 z2 | F,,2 z2 z2 | E,,B,/A,/ B,^G, E,D, | %194
 ^C,G,/F,/ G,E, C,B,, | ^A,,E,/D,/ E,^C, A,,F,, | D,B,, F,2 F,,2 | B,,6 | E,2 z2 z2 | E,,2 z2 z2 | %200
 z E,/^D,/ E,B,, E,,/F,,/G,,/A,,/ | B,,B,/A,/ B,F, E,/^D,/^C,/B,,/ | E,2 z G, A,C, | %203
 D,2 z F, G,B,, | C,2 z A,, F,,A,, | B,,2 z G,, E,,G,, | A,,B,, A,,G,, F,,G,,/A,,/ | %207
 B,,^C, ^D,E, D,E, | ^D,B,/A,/ B,D, E,/G,/A,/B,/ | CA, B,A, B,B,, | E,2 z2 z2 | z E, E,E, E,E, | %212
 E,/A,/^G,/F,/ E,/F,/D,/E,/ ^C,/D,/B,,/C,/ | A,,A, A,A, A,A, | %214
 A,/D/^C/B,/ A,/B,/G,/A,/ F,/G,/E,/F,/ | D,D DD DD | D/G/F/E/ D/E/C/D/ B,/C/A,/B,/ | %217
 C/=F/E/D/ C/D/B,/C/ A,/B,/G,/A,/ | B,/E/D/C/ B,/C/A,/B,/ G,/A,/F,/G,/ | %219
 A,/D/C/B,/ A,/B,/G,/A,/ F,/G,/E,/F,/ | G, z z F, G,/F,/E,/D,/ | E,C z E, =F,/E,/D,/C,/ | %222
 D,B, z B,, C,/B,,/A,,/G,,/ | C,A, z C, D,/C,/B,,/A,,/ | B,,G, z D, B,,G,, | C,A, z E, C,A,, | %226
 D,B, z F, D,B,, | E,C DB, CA, | B,G, A,F, G,E, | F,D, E,C, D,B,, | C,A,, B,,G,, A,,/G,,/F,,/E,,/ | %231
 D,,A,/G,/ A,F, D,C, | B,,C, D,C, D,D,, | G,,2 z2 z2 | F,,2 z2 z2 | E,,B,/A,/ B,^G, E,D, | %236
 ^C,G,/F,/ G,E, C,B,, | ^A,,E,/D,/ E,^C, A,,F,, | D,B,, F,2 F,,2 | B,,B,/A,/ B,G, F,/E,/D,/^C,/ | %240
 B,,2 z D, B,,D, | E,^G, E,G, A,C | A,C =FD EE, | A,2 z C A,C | DF, D,F, G,B, | G,B, EC DD, | %246
 z G,/F,/ G,D, G,,/A,,/B,,/C,/ | D,D/C/ DA, D,/E,/F,/G,/ | A,A,/^G,/ A,E, A,,/B,,/C,/D,/ | %249
 E,E/^D/ EB, E,/F,/G,/A,/ | B,B,/^A,/ B, z z2 | z B,/^A,/ B, z z2 | z B,/^A,/ B, z z2 | %253
 z B,/^A,/ B, z z2 | z B,, B,,B,, B,,B,, | B,,/E,/^D,/^C,/ B,,/=C,/A,,/B,,/ G,,/A,,/F,,/G,,/ | %256
 E,,E, E,E, E,E, | E,/A,/^G,/F,/ E,/F,/D,/E,/ ^C,/D,/B,,/C,/ | A,,A, A,A, A,A, | %259
 A,/D/^C/B,/ A,/B,/G,/A,/ F,/G,/E,/F,/ | D,D DD DD | D/G/F/E/ D/E/C/D/ B,/C/A,/B,/ | %262
 G,G/F/ E z z G, | A,F/E/ D z z F, | G,E/D/ C z z E, | F,^D/^C/ B, z z ^D, | %266
 E, z z B,, C,/B,,/A,,/G,,/ | C,A, z C, D,/C,/B,,/A,,/ | B,,G, z G,, A,,/G,,/F,,/E,,/ | %269
 A,,F, z A,, B,,/A,,/G,,/F,,/ | G,,E, z E, ^G,,B,, | C,A, z A, C,E, | F,A,, z ^D, F,A, | %273
 G,A, B,C A,B, | G,A, F,G, E,F, | D,E, C,D, B,,C, | A,,B,, G,,A,,/G,,/ F,,/E,,/^D,,/E,,/ | %277
 ^D,,B,/A,/ B,^D, F,A,, | G,,A,, B,,A,, B,,B,, | E,,2 z2 z2 | D,,2 z2 z2 | C,,A,/^G,/ A, z z2 | %282
 =F,,A,/^G,/ A, z z2 | A,,F,/E,/ F,^D, B,,F,, | G,,E,, B,,2 B,,2 | E,,6 | B,,2 z D, B,,D, | %287
 E,^G, E,G, A,C | A,C =FD EE, | A,2 z C A,C | DF, D,F, G,B, | G,B, EC DD, | %292
 z G,/F,/ G,D, G,,/A,,/B,,/C,/ | D,D/C/ DA, D,/E,/F,/G,/ | A,A,/^G,/ A,E, A,,/B,,/C,/D,/ | %295
 E,E/^D/ EB, E,/F,/G,/A,/ | B,B,/^A,/ B, z z2 | z B,/^A,/ B, z z2 | z B,/^A,/ B, z z2 | %299
 z B,/^A,/ B, z z2 | z B,, B,,B,, B,,B,, | B,,/E,/^D,/^C,/ B,,/=C,/A,,/B,,/ G,,/A,,/F,,/G,,/ | %302
 E,,E, E,E, E,E, | E,/A,/^G,/F,/ E,/F,/D,/E,/ ^C,/D,/B,,/C,/ | A,,A, A,A, A,A, | %305
 A,/D/^C/B,/ A,/B,/G,/A,/ F,/G,/E,/F,/ | D,D DD DD | D/G/F/E/ D/E/C/D/ B,/C/A,/B,/ | %308
 G,G/F/ E z z G, | A,F/E/ D z z F, | G,E/D/ C z z E, | F,^D/^C/ B, z z ^D, | %312
 E, z z B,, C,/B,,/A,,/G,,/ | C,A, z C, D,/C,/B,,/A,,/ | B,,G, z G,, A,,/G,,/F,,/E,,/ | %315
 A,,F, z A,, B,,/A,,/G,,/F,,/ | G,,E, z E, ^G,,B,, | C,A, z A, C,E, | F,A,, z ^D, F,A, | %319
 G,A, B,C A,B, | G,A, F,G, E,F, | D,E, C,D, B,,C, | A,,B,, G,,A,,/G,,/ F,,/E,,/^D,,/E,,/ | %323
 ^D,,B,/A,/ B,^D, F,A,, | G,,A,, B,,A,, B,,B,, | E,,2 z2 z2 | D,,2 z2 z2 | C,,A,/^G,/ A, z z2 | %328
 =F,,A,/^G,/ A, z z2 | A,,F,/E,/ F,^D, B,,F,, | G,,E,, B,,2 B,,2 | E,,6 |] %332

